; generated by PrusaSlicer 2.4.0+win64 on 2022-01-28 at 22:21:21 UTC

; 

; external perimeters extrusion width = 0.45mm
; perimeters extrusion width = 0.45mm
; infill extrusion width = 0.45mm
; solid infill extrusion width = 0.45mm
; top infill extrusion width = 0.40mm
; first layer extrusion width = 0.42mm

M201 X500 Y500 Z100 E5000 ; sets maximum accelerations, mm/sec^2
M203 X500 Y500 Z10 E60 ; sets maximum feedrates, mm/sec
M204 P500 R1000 T500 ; sets acceleration (P, T) and retract acceleration (R), mm/sec^2
M205 X8.00 Y8.00 Z0.40 E5.00 ; sets the jerk limits, mm/sec
M205 S0 T0 ; sets the minimum extruding and travel feed rate, mm/sec
M107
;TYPE:Custom
G90 ; use absolute coordinates
M83 ; extruder relative mode
M140 S60 ; set final bed temp
M104 S150 ; set temporary nozzle temp to prevent oozing during homing
G4 S10 ; allow partial nozzle warmup
G28 ; home all axis
G29 ;
G1 Z50 F240
G1 X2 Y10 F3000
M104 S210 ; set final nozzle temp
M190 S60 ; wait for bed temp to stabilize
M109 S210 ; wait for nozzle temp to stabilize
G1 Z0.28 F240
G92 E0
G1 Y140 E10 F1500 ; prime the nozzle
G1 X2.3 F5000
G92 E0
G1 Y10 E10 F1200 ; prime the nozzle
G92 E0
G21 ; set units to millimeters
G90 ; use absolute coordinates
M83 ; use relative distances for extrusion
; Filament gcode
M107
;LAYER_CHANGE
;Z:0.24
;HEIGHT:0.24
;BEFORE_LAYER_CHANGE
G92 E0
;0.24


G1 E-6 F3600
G1 Z.24 F9000
;AFTER_LAYER_CHANGE
;0.24
G1 X118.14 Y119.148
G1 E6 F2400
M204 S500
;TYPE:Skirt/Brim
;WIDTH:0.42
G1 F1800
G1 X124.231 Y113.904 E.29552
G1 X124.771 Y113.524 E.02428
G1 X131.768 Y109.569 E.29552
G1 X132.372 Y109.302 E.02428
G1 X140.006 Y106.788 E.29552
G1 X140.651 Y106.644 E.02428
G1 X148.628 Y105.668 E.29552
G1 X149.577 Y105.674 E.03486
G1 X157.304 Y106.251 E.28491
G1 X157.954 Y106.365 E.02428
G1 X165.698 Y108.516 E.29552
G1 X166.314 Y108.754 E.02428
G1 X173.49 Y112.374 E.29552
G1 X174.048 Y112.728 E.02428
G1 X180.379 Y117.679 E.29552
G1 X180.857 Y118.135 E.02428
G1 X186.101 Y124.226 E.29552
G1 X186.481 Y124.766 E.02428
G1 X190.436 Y131.763 E.29552
G1 X190.703 Y132.367 E.02428
G1 X193.217 Y140.001 E.29552
G1 X193.361 Y140.645 E.02428
G1 X194.337 Y148.623 E.29552
G1 X194.353 Y149.283 E.02428
G1 X193.754 Y157.299 E.29553
G1 X193.64 Y157.949 E.02428
G1 X191.489 Y165.693 E.29553
G1 X191.251 Y166.309 E.02428
G1 X187.631 Y173.485 E.29552
G1 X187.277 Y174.042 E.02428
G1 X182.326 Y180.374 E.29553
G1 X181.87 Y180.852 E.02428
G1 X175.779 Y186.096 E.29552
G1 X175.239 Y186.476 E.02428
G1 X168.242 Y190.431 E.29552
G1 X167.638 Y190.698 E.02428
G1 X160.004 Y193.212 E.29552
G1 X159.36 Y193.356 E.02428
G1 X151.382 Y194.332 E.29552
G1 X150.722 Y194.348 E.02428
G1 X142.707 Y193.749 E.29553
G1 X142.056 Y193.635 E.02428
G1 X134.312 Y191.484 E.29552
G1 X133.696 Y191.246 E.02428
G1 X126.52 Y187.626 E.29552
G1 X125.963 Y187.272 E.02428
G1 X119.631 Y182.321 E.29553
G1 X119.153 Y181.865 E.02428
G1 X113.909 Y175.774 E.29552
G1 X113.529 Y175.234 E.02428
G1 X109.574 Y168.237 E.29552
G1 X109.307 Y167.633 E.02428
G1 X106.66 Y159.433 E.31682
G1 X105.648 Y150.987 E.31279
G1 X106.27 Y142.554 E.3109
G1 X108.521 Y134.307 E.31434
G1 X108.759 Y133.691 E.02428
G1 X112.379 Y126.515 E.29552
G1 X112.733 Y125.957 E.02428
G1 X117.684 Y119.626 E.29552
G1 X118.098 Y119.191 E.02207
G1 E-4.2 F3600
;WIPE_START
G1 F7200
G1 X120.825 Y116.841 E-1.71
;WIPE_END
G1 E-.09 F3600
G1 X169.55 Y165.698 F9000
G1 E6 F2400
;TYPE:Perimeter
G1 F1800
G1 X171.078 Y165.249 E.05853
G1 X174.078 Y165.978 E.11354
G1 X176.313 Y168.109 E.11354
G1 X177.182 Y171.072 E.11354
G1 X176.453 Y174.073 E.11354
G1 X174.322 Y176.308 E.11354
G1 X171.359 Y177.177 E.11354
G1 X168.358 Y176.448 E.11354
G1 X166.124 Y174.317 E.11354
G1 X165.255 Y171.354 E.11354
G1 X165.983 Y168.353 E.11354
G1 X168.115 Y166.119 E.11354
G1 X169.493 Y165.714 E.05281
G1 X169.27 Y166.164 F9000
G1 F1800
G1 X171.087 Y165.631 E.0696
G1 X173.895 Y166.313 E.10628
G1 X175.987 Y168.308 E.10628
G1 X176.801 Y171.081 E.10628
G1 X176.119 Y173.89 E.10628
G1 X174.124 Y175.982 E.10628
G1 X171.35 Y176.796 E.10628
G1 X168.541 Y176.114 E.10628
G1 X166.45 Y174.118 E.10628
G1 X165.636 Y171.345 E.10628
G1 X166.318 Y168.536 E.10628
G1 X168.313 Y166.445 E.10628
G1 X169.213 Y166.181 E.03447
G1 X168.99 Y166.63 F9000
G1 F1800
G1 X171.096 Y166.012 E.08068
G1 X173.712 Y166.648 E.09902
G1 X175.661 Y168.506 E.09902
G1 X176.419 Y171.09 E.09902
G1 X175.784 Y173.707 E.09902
G1 X173.925 Y175.656 E.09902
G1 X171.341 Y176.414 E.09902
G1 X168.724 Y175.779 E.09902
G1 X166.776 Y173.92 E.09902
G1 X166.017 Y171.336 E.09902
G1 X166.653 Y168.719 E.09902
G1 X168.512 Y166.77 E.09902
G1 X168.932 Y166.647 E.01613
G1 X168.71 Y167.096 F9000
;TYPE:External perimeter
G1 F1800
G1 X171.105 Y166.394 E.09176
G1 X173.53 Y166.982 E.09176
G1 X175.335 Y168.705 E.09176
G1 X176.038 Y171.099 E.09176
G1 X175.449 Y173.524 E.09176
G1 X173.727 Y175.33 E.09176
G1 X171.332 Y176.033 E.09176
G1 X168.907 Y175.444 E.09176
G1 X167.101 Y173.722 E.09176
G1 X166.399 Y171.327 E.09176
G1 X166.988 Y168.902 E.09176
G1 X168.669 Y167.14 E.08955
G1 X168.701 Y166.696 F9000
G1 E-4.2 F3600
;WIPE_START
G1 F7200
G1 X171.105 Y166.394 E-1.21013
G1 X172.127 Y166.642 E-.49987
;WIPE_END
G1 E-.09 F3600
G1 X170.481 Y134.537 F9000
G1 E6 F2400
;TYPE:Perimeter
G1 F1800
G1 X168.358 Y134.022 E.08031
G1 X166.124 Y131.891 E.11354
G1 X165.255 Y128.928 E.11354
G1 X165.983 Y125.927 E.11354
G1 X168.115 Y123.692 E.11354
G1 X171.078 Y122.823 E.11354
G1 X174.078 Y123.552 E.11354
G1 X176.313 Y125.683 E.11354
G1 X177.182 Y128.646 E.11354
G1 X176.453 Y131.647 E.11354
G1 X174.322 Y133.881 E.11354
G1 X171.359 Y134.751 E.11354
G1 X170.539 Y134.551 E.03102
G1 X170.765 Y134.227 F9000
G1 F1800
G1 X168.541 Y133.687 E.08412
G1 X166.45 Y131.692 E.10628
G1 X165.636 Y128.919 E.10628
G1 X166.318 Y126.11 E.10628
G1 X168.313 Y124.018 E.10628
G1 X171.087 Y123.204 E.10628
G1 X173.895 Y123.886 E.10628
G1 X175.987 Y125.881 E.10628
G1 X176.801 Y128.655 E.10628
G1 X176.119 Y131.464 E.10628
G1 X174.124 Y133.555 E.10628
G1 X171.35 Y134.369 E.10628
G1 X170.823 Y134.241 E.01995
G1 X171.048 Y133.917 F9000
G1 F1800
G1 X168.724 Y133.352 E.08794
G1 X166.776 Y131.494 E.09902
G1 X166.017 Y128.91 E.09902
G1 X166.653 Y126.293 E.09902
G1 X168.512 Y124.344 E.09902
G1 X171.096 Y123.586 E.09902
G1 X173.712 Y124.221 E.09902
G1 X175.661 Y126.08 E.09902
G1 X176.419 Y128.664 E.09902
G1 X175.784 Y131.281 E.09902
G1 X173.925 Y133.23 E.09902
G1 X171.341 Y133.988 E.09902
G1 X171.107 Y133.931 E.00887
G1 X171.332 Y133.606 F9000
;TYPE:External perimeter
G1 F1800
G1 X168.907 Y133.018 E.09176
G1 X167.101 Y131.295 E.09176
G1 X166.399 Y128.901 E.09176
G1 X166.988 Y126.476 E.09176
G1 X168.71 Y124.67 E.09176
G1 X171.105 Y123.967 E.09176
G1 X173.53 Y124.556 E.09176
G1 X175.335 Y126.278 E.09176
G1 X176.038 Y128.673 E.09176
G1 X175.449 Y131.098 E.09176
G1 X173.727 Y132.904 E.09176
G1 X171.39 Y133.589 E.08955
G1 X171.14 Y133.957 F9000
G1 E-4.2 F3600
;WIPE_START
G1 F7200
G1 X168.907 Y133.018 E-1.21013
G1 X168.146 Y132.291 E-.49987
;WIPE_END
G1 E-.09 F3600
G1 X134.403 Y130.1 F9000
G1 E6 F2400
;TYPE:Perimeter
G1 F1800
G1 X134.027 Y131.647 E.05853
G1 X131.896 Y133.881 E.11354
G1 X128.933 Y134.751 E.11354
G1 X125.932 Y134.022 E.11354
G1 X123.698 Y131.891 E.11354
G1 X122.828 Y128.928 E.11354
G1 X123.557 Y125.927 E.11354
G1 X125.688 Y123.692 E.11354
G1 X128.651 Y122.823 E.11354
G1 X131.652 Y123.552 E.11354
G1 X133.886 Y125.683 E.11354
G1 X134.756 Y128.646 E.11354
G1 X134.417 Y130.042 E.05281
G1 X134.139 Y129.624 F9000
G1 F1800
G1 X133.692 Y131.464 E.0696
G1 X131.697 Y133.555 E.10628
G1 X128.924 Y134.369 E.10628
G1 X126.115 Y133.687 E.10628
G1 X124.023 Y131.692 E.10628
G1 X123.21 Y128.919 E.10628
G1 X123.892 Y126.11 E.10628
G1 X125.887 Y124.018 E.10628
G1 X128.66 Y123.204 E.10628
G1 X131.469 Y123.886 E.10628
G1 X133.56 Y125.881 E.10628
G1 X134.374 Y128.655 E.10628
G1 X134.153 Y129.566 E.03447
G1 X133.875 Y129.149 F9000
G1 F1800
G1 X133.357 Y131.281 E.08068
G1 X131.499 Y133.23 E.09902
G1 X128.915 Y133.988 E.09902
G1 X126.298 Y133.352 E.09902
G1 X124.349 Y131.494 E.09902
G1 X123.591 Y128.91 E.09902
G1 X124.226 Y126.293 E.09902
G1 X126.085 Y124.344 E.09902
G1 X128.669 Y123.586 E.09902
G1 X131.286 Y124.221 E.09902
G1 X133.235 Y126.08 E.09902
G1 X133.993 Y128.664 E.09902
G1 X133.889 Y129.09 E.01613
G1 X133.611 Y128.673 F9000
;TYPE:External perimeter
G1 F1800
G1 X133.023 Y131.098 E.09176
G1 X131.3 Y132.904 E.09176
G1 X128.906 Y133.606 E.09176
G1 X126.481 Y133.018 E.09176
G1 X124.675 Y131.295 E.09176
G1 X123.972 Y128.901 E.09176
G1 X124.561 Y126.476 E.09176
G1 X126.284 Y124.67 E.09176
G1 X128.678 Y123.967 E.09176
G1 X131.103 Y124.556 E.09176
G1 X132.909 Y126.278 E.09176
G1 X133.595 Y128.615 E.08955
G1 X133.963 Y128.865 F9000
G1 E-4.2 F3600
;WIPE_START
G1 F7200
G1 X133.023 Y131.098 E-1.21013
G1 X132.296 Y131.86 E-.49987
;WIPE_END
G1 E-.09 F3600
G1 X129.529 Y165.463 F9000
G1 E6 F2400
;TYPE:Perimeter
G1 F1800
G1 X131.652 Y165.978 E.08031
G1 X133.886 Y168.109 E.11354
G1 X134.756 Y171.072 E.11354
G1 X134.027 Y174.073 E.11354
G1 X131.896 Y176.308 E.11354
G1 X128.933 Y177.177 E.11354
G1 X125.932 Y176.448 E.11354
G1 X123.698 Y174.317 E.11354
G1 X122.828 Y171.354 E.11354
G1 X123.557 Y168.353 E.11354
G1 X125.688 Y166.119 E.11354
G1 X128.651 Y165.249 E.11354
G1 X129.471 Y165.449 E.03102
G1 X129.246 Y165.773 F9000
G1 F1800
G1 X131.469 Y166.313 E.08412
G1 X133.56 Y168.308 E.10628
G1 X134.374 Y171.081 E.10628
G1 X133.692 Y173.89 E.10628
G1 X131.697 Y175.982 E.10628
G1 X128.924 Y176.796 E.10628
G1 X126.115 Y176.114 E.10628
G1 X124.023 Y174.118 E.10628
G1 X123.21 Y171.345 E.10628
G1 X123.892 Y168.536 E.10628
G1 X125.887 Y166.445 E.10628
G1 X128.66 Y165.631 E.10628
G1 X129.187 Y165.759 E.01995
G1 X128.962 Y166.083 F9000
G1 F1800
G1 X131.286 Y166.648 E.08794
G1 X133.235 Y168.506 E.09902
G1 X133.993 Y171.09 E.09902
G1 X133.357 Y173.707 E.09902
G1 X131.499 Y175.656 E.09902
G1 X128.915 Y176.414 E.09902
G1 X126.298 Y175.779 E.09902
G1 X124.349 Y173.92 E.09902
G1 X123.591 Y171.336 E.09902
G1 X124.226 Y168.719 E.09902
G1 X126.085 Y166.77 E.09902
G1 X128.669 Y166.012 E.09902
G1 X128.904 Y166.069 E.00887
G1 X128.678 Y166.394 F9000
;TYPE:External perimeter
G1 F1800
G1 X131.103 Y166.982 E.09176
G1 X132.909 Y168.705 E.09176
G1 X133.611 Y171.099 E.09176
G1 X133.023 Y173.524 E.09176
G1 X131.3 Y175.33 E.09176
G1 X128.906 Y176.033 E.09176
G1 X126.481 Y175.444 E.09176
G1 X124.675 Y173.722 E.09176
G1 X123.972 Y171.327 E.09176
G1 X124.561 Y168.902 E.09176
G1 X126.284 Y167.096 E.09176
G1 X128.621 Y166.411 E.08955
G1 X128.87 Y166.043 F9000
G1 E-4.2 F3600
;WIPE_START
G1 F7200
G1 X131.103 Y166.982 E-1.21013
G1 X131.865 Y167.709 E-.49987
;WIPE_END
G1 E-.09 F3600
G1 X117.035 Y171.714 F9000
G1 E6 F2400
;TYPE:Perimeter
G1 F1800
G1 X113.808 Y166.004 E.24115
G1 X111.381 Y158.634 E.28531
G1 X110.438 Y150.925 E.28557
G1 X111.016 Y143.199 E.28485
G1 X113.093 Y135.721 E.28536
G1 X116.588 Y128.794 E.28527
G1 X121.367 Y122.683 E.28527
G1 X127.247 Y117.62 E.28527
G1 X134.001 Y113.803 E.28527
G1 X141.37 Y111.376 E.28527
G1 X149.071 Y110.433 E.28527
G1 X156.808 Y111.011 E.28527
G1 X164.284 Y113.088 E.28527
G1 X171.211 Y116.583 E.28527
G1 X177.323 Y121.362 E.28527
G1 X182.385 Y127.241 E.28527
G1 X186.203 Y133.996 E.28527
G1 X188.629 Y141.365 E.28527
G1 X189.572 Y149.066 E.28527
G1 X188.994 Y156.803 E.28527
G1 X186.917 Y164.279 E.28527
G1 X183.422 Y171.206 E.28527
G1 X178.643 Y177.317 E.28527
G1 X172.764 Y182.38 E.28527
G1 X166.009 Y186.197 E.28527
G1 X158.64 Y188.624 E.28527
G1 X150.939 Y189.567 E.28527
G1 X143.202 Y188.989 E.28527
G1 X135.726 Y186.912 E.28527
G1 X128.8 Y183.417 E.28527
G1 X122.688 Y178.638 E.28527
G1 X117.625 Y172.759 E.28527
G1 X117.065 Y171.766 E.04192
G1 X116.929 Y172.275 F9000
G1 F1800
G1 X113.469 Y166.154 E.25853
G1 X111.019 Y158.715 E.28798
G1 X110.068 Y150.933 E.28824
G1 X110.651 Y143.135 E.28752
G1 X112.748 Y135.588 E.28802
G1 X116.275 Y128.596 E.28794
G1 X121.099 Y122.427 E.28794
G1 X127.034 Y117.317 E.28794
G1 X133.851 Y113.464 E.28794
G1 X141.289 Y111.014 E.28794
G1 X149.062 Y110.063 E.28794
G1 X156.872 Y110.647 E.28794
G1 X164.417 Y112.742 E.28794
G1 X171.409 Y116.27 E.28794
G1 X177.578 Y121.094 E.28794
G1 X182.688 Y127.029 E.28794
G1 X186.541 Y133.846 E.28794
G1 X188.991 Y141.284 E.28794
G1 X189.942 Y149.057 E.28794
G1 X189.358 Y156.867 E.28794
G1 X187.263 Y164.412 E.28794
G1 X183.735 Y171.404 E.28794
G1 X178.911 Y177.573 E.28794
G1 X172.977 Y182.683 E.28794
G1 X166.159 Y186.536 E.28794
G1 X158.721 Y188.986 E.28794
G1 X150.948 Y189.937 E.28794
G1 X143.138 Y189.353 E.28794
G1 X135.593 Y187.258 E.28794
G1 X128.601 Y183.73 E.28794
G1 X122.432 Y178.906 E.28794
G1 X117.323 Y172.971 E.28794
G1 X116.958 Y172.327 E.02721
G1 X116.823 Y172.836 F9000
G1 F1800
G1 X113.13 Y166.304 E.2759
G1 X110.658 Y158.795 E.29065
G1 X109.697 Y150.942 E.29091
G1 X110.286 Y143.072 E.29019
G1 X112.402 Y135.454 E.29069
G1 X115.963 Y128.398 E.29061
G1 X120.831 Y122.171 E.29061
G1 X126.821 Y117.015 E.29061
G1 X133.701 Y113.125 E.29061
G1 X141.209 Y110.653 E.29061
G1 X149.054 Y109.693 E.29061
G1 X156.936 Y110.282 E.29061
G1 X164.551 Y112.397 E.29061
G1 X171.607 Y115.957 E.29061
G1 X177.834 Y120.826 E.29061
G1 X182.991 Y126.816 E.29061
G1 X186.88 Y133.696 E.29061
G1 X189.352 Y141.203 E.29061
G1 X190.312 Y149.049 E.29061
G1 X189.723 Y156.93 E.29061
G1 X187.608 Y164.546 E.29061
G1 X184.048 Y171.602 E.29061
G1 X179.179 Y177.829 E.29061
G1 X173.19 Y182.985 E.29061
G1 X166.309 Y186.875 E.29061
G1 X158.802 Y189.347 E.29061
G1 X150.956 Y190.307 E.29061
G1 X143.075 Y189.718 E.29061
G1 X135.459 Y187.603 E.29061
G1 X128.403 Y184.043 E.29061
G1 X122.176 Y179.174 E.29061
G1 X117.02 Y173.184 E.29061
G1 X116.852 Y172.888 E.0125
G1 X116.717 Y173.397 F9000
;TYPE:External perimeter
G1 F1800
G1 X112.792 Y166.454 E.29328
G1 X110.296 Y158.876 E.29332
G1 X109.327 Y150.951 E.29358
G1 X109.922 Y143.008 E.29286
G1 X112.057 Y135.321 E.29336
G1 X115.65 Y128.199 E.29328
G1 X120.563 Y121.916 E.29328
G1 X126.608 Y116.712 E.29328
G1 X133.552 Y112.787 E.29328
G1 X141.128 Y110.292 E.29328
G1 X149.045 Y109.323 E.29328
G1 X156.999 Y109.917 E.29328
G1 X164.685 Y112.052 E.29328
G1 X171.806 Y115.645 E.29328
G1 X178.089 Y120.558 E.29328
G1 X183.294 Y126.603 E.29328
G1 X187.218 Y133.546 E.29328
G1 X189.713 Y141.123 E.29328
G1 X190.682 Y149.04 E.29328
G1 X190.088 Y156.994 E.29328
G1 X187.953 Y164.679 E.29328
G1 X184.36 Y171.801 E.29328
G1 X179.447 Y178.084 E.29328
G1 X173.402 Y183.288 E.29328
G1 X166.459 Y187.213 E.29328
G1 X158.882 Y189.708 E.29328
G1 X150.965 Y190.677 E.29328
G1 X143.011 Y190.083 E.29328
G1 X135.326 Y187.948 E.29328
G1 X128.204 Y184.355 E.29328
G1 X121.921 Y179.442 E.29328
G1 X116.756 Y173.443 E.29107
G1 X116.885 Y173.035 F9000
G1 E-4.2 F3600
;WIPE_START
G1 F7200
G1 X114.98 Y170.311 E-1.71
;WIPE_END
G1 E-.09 F3600
G1 X181.93 Y126.883 F9000
G1 E6 F2400
;TYPE:Solid infill
;WIDTH:0.42042
G1 F1800
G1 X174.742 Y119.695 E.37419
G1 X172.35 Y117.824 E.11179
G1 X182.458 Y127.932 E.5262
G1 X183.136 Y129.132 E.05074
G1 X170.576 Y116.572 E.65386
G1 X169.523 Y116.041 E.04342
G1 X183.814 Y130.332 E.74399
G1 X184.493 Y131.532 E.05074
G1 X168.47 Y115.509 E.83412
G1 X167.417 Y114.978 E.04342
G1 X185.171 Y132.732 E.92425
G1 X185.849 Y133.932 E.05074
G1 X166.364 Y114.447 E1.01439
G1 X165.311 Y113.915 E.04342
G1 X186.167 Y134.772 E1.08575
G1 X186.423 Y135.55 E.03015
G1 X164.258 Y113.384 E1.15391
G1 X164.184 Y113.347 E.00305
G1 X163.512 Y113.16 E.02566
G1 X173.472 Y123.12 E.51848
G1 X172.783 Y122.953 E.0261
G1 X162.79 Y112.96 E.52022
G1 X162.067 Y112.759 E.0276
G1 X172.094 Y122.785 E.52195
G1 X171.405 Y122.618 E.0261
G1 X161.345 Y112.558 E.52369
G1 X160.623 Y112.358 E.0276
G1 X170.863 Y122.598 E.53309
G1 X170.459 Y122.716 E.01547
G1 X159.9 Y112.157 E.5497
G1 X159.178 Y111.956 E.0276
G1 X170.056 Y122.835 E.5663
G1 X169.653 Y122.953 E.01547
G1 X158.455 Y111.756 E.58291
G1 X157.733 Y111.555 E.0276
G1 X169.249 Y123.071 E.59952
G1 X168.846 Y123.19 E.01547
G1 X157.011 Y111.354 E.61612
G1 X156.76 Y111.285 E.00956
G1 X156.392 Y111.257 E.0136
G1 X168.443 Y123.308 E.62734
G1 X168.039 Y123.426 E.01547
G1 X155.828 Y111.215 E.63569
