; generated by PrusaSlicer 2.4.0+win64 on 2022-01-29 at 22:48:35 UTC

; 

; external perimeters extrusion width = 0.45mm
; perimeters extrusion width = 0.45mm
; infill extrusion width = 0.45mm
; solid infill extrusion width = 0.45mm
; top infill extrusion width = 0.40mm
; first layer extrusion width = 0.42mm

M201 X500 Y500 Z100 E5000 ; sets maximum accelerations, mm/sec^2
M203 X500 Y500 Z10 E60 ; sets maximum feedrates, mm/sec
M204 P500 R1000 T500 ; sets acceleration (P, T) and retract acceleration (R), mm/sec^2
M205 X8.00 Y8.00 Z0.40 E5.00 ; sets the jerk limits, mm/sec
M205 S0 T0 ; sets the minimum extruding and travel feed rate, mm/sec
M107
;TYPE:Custom
G90 ; use absolute coordinates
M83 ; extruder relative mode
M140 S60 ; set final bed temp
M104 S150 ; set temporary nozzle temp to prevent oozing during homing
G4 S10 ; allow partial nozzle warmup
G28 ; home all axis
G29 ;
G1 Z50 F240
G1 X2 Y10 F3000
M104 S210 ; set final nozzle temp
M190 S60 ; wait for bed temp to stabilize
M109 S210 ; wait for nozzle temp to stabilize
G1 Z0.28 F240
G92 E0
G1 Y140 E10 F1500 ; prime the nozzle
G1 X2.3 F5000
G92 E0
G1 Y10 E10 F1200 ; prime the nozzle
G92 E0
G21 ; set units to millimeters
G90 ; use absolute coordinates
M83 ; use relative distances for extrusion
; Filament gcode
M107
;LAYER_CHANGE
;Z:0.24
;HEIGHT:0.24
;BEFORE_LAYER_CHANGE
G92 E0
;0.24


G1 E-6 F3600
G1 Z.24 F9000
;AFTER_LAYER_CHANGE
;0.24
G1 X113.063 Y132.312
G1 E6 F2400
M204 S500
;TYPE:Skirt/Brim
;WIDTH:0.42
G1 F1800
G1 X113.869 Y131.793 E.03525
G1 X118.529 Y129.665 E.18838
G1 X119.449 Y129.395 E.03525
G1 X125 Y128.632 E.20601
G1 X175.479 Y128.666 E1.85606
G1 X180.551 Y129.395 E.18838
G1 X181.471 Y129.665 E.03525
G1 X186.131 Y131.793 E.18838
G1 X186.937 Y132.312 E.03525
G1 X190.809 Y135.667 E.18838
G1 X191.485 Y136.465 E.03845
G1 X194.207 Y140.701 E.18515
G1 X194.605 Y141.574 E.03525
G1 X196.049 Y146.489 E.18838
G1 X196.185 Y147.438 E.03525
G1 X196.185 Y152.562 E.18838
G1 X196.049 Y153.511 E.03525
G1 X194.605 Y158.426 E.18838
G1 X194.207 Y159.299 E.03525
G1 X191.437 Y163.609 E.18838
G1 X190.61 Y164.506 E.04486
G1 X186.937 Y167.688 E.17869
G1 X186.131 Y168.207 E.03525
G1 X181.471 Y170.335 E.18838
G1 X180.551 Y170.605 E.03525
G1 X175 Y171.368 E.20601
G1 X125 Y171.368 E1.83843
G1 X119.449 Y170.605 E.20601
G1 X118.529 Y170.335 E.03525
G1 X113.869 Y168.207 E.18838
G1 X113.063 Y167.688 E.03525
G1 X109.191 Y164.333 E.18838
G1 X108.563 Y163.609 E.03525
G1 X105.793 Y159.299 E.18838
G1 X105.395 Y158.426 E.03525
G1 X103.951 Y153.511 E.18838
G1 X103.815 Y152.562 E.03525
G1 X103.815 Y147.438 E.18838
G1 X103.951 Y146.489 E.03525
G1 X105.395 Y141.574 E.18838
G1 X105.793 Y140.701 E.03525
G1 X108.563 Y136.391 E.18838
G1 X109.191 Y135.667 E.03525
G1 X113.017 Y132.351 E.18617
G1 E-4.2 F3600
;WIPE_START
G1 F7200
G1 X113.869 Y131.793 E-.48364
G1 X116.218 Y130.721 E-1.22636
;WIPE_END
G1 E-.09 F3600
G1 X145.392 Y159.34 F9000
G1 E6 F2400
;TYPE:External perimeter
G1 F1800
G1 X147.34 Y157.392 E.10127
G1 X150 Y156.679 E.10127
G1 X152.66 Y157.392 E.10127
G1 X154.608 Y159.34 E.10127
G1 X155.321 Y162 E.10127
G1 X154.608 Y164.66 E.10127
G1 X152.66 Y166.608 E.10127
G1 X150 Y167.321 E.10127
G1 X147.34 Y166.608 E.10127
G1 X145.392 Y164.66 E.10127
G1 X144.679 Y162 E.10127
G1 X145.376 Y159.397 E.09907
G1 X145.192 Y158.993 F9000
G1 E-4.2 F3600
;WIPE_START
G1 F7200
G1 X147.34 Y157.392 E-1.33306
G1 X148.106 Y157.187 E-.37694
;WIPE_END
G1 E-.09 F3600
G1 X170.3 Y152.426 F9000
G1 E6 F2400
;TYPE:Perimeter
G1 F1800
G1 X169.512 Y150 E.0938
G1 X170.56 Y146.774 E.12472
G1 X173.304 Y144.78 E.12472
G1 X176.696 Y144.78 E.12472
G1 X179.44 Y146.774 E.12472
G1 X180.488 Y150 E.12472
G1 X179.44 Y153.226 E.12472
G1 X176.696 Y155.22 E.12472
G1 X173.304 Y155.22 E.12472
G1 X170.56 Y153.226 E.12472
G1 X170.319 Y152.483 E.02871
G1 X170.7 Y152.465 F9000
G1 F1800
G1 X169.899 Y150 E.0953
G1 X170.873 Y147.002 E.11591
G1 X173.424 Y145.149 E.11591
G1 X176.576 Y145.149 E.11591
G1 X179.127 Y147.002 E.11591
G1 X180.101 Y150 E.11591
G1 X179.127 Y152.998 E.11591
G1 X176.576 Y154.851 E.11591
G1 X173.424 Y154.851 E.11591
G1 X170.873 Y152.998 E.11591
G1 X170.719 Y152.522 E.0184
G1 X171.1 Y152.504 F9000
G1 F1800
G1 X170.287 Y150 E.0968
G1 X171.187 Y147.23 E.10711
G1 X173.543 Y145.517 E.10711
G1 X176.457 Y145.517 E.10711
G1 X178.813 Y147.23 E.10711
G1 X179.713 Y150 E.10711
G1 X178.813 Y152.77 E.10711
G1 X176.457 Y154.483 E.10711
G1 X173.543 Y154.483 E.10711
G1 X171.187 Y152.77 E.10711
G1 X171.119 Y152.561 E.0081
G1 X171.5 Y152.543 F9000
;TYPE:External perimeter
G1 F1800
G1 X170.674 Y150 E.0983
G1 X171.5 Y147.457 E.0983
G1 X173.663 Y145.886 E.0983
G1 X176.337 Y145.886 E.0983
G1 X178.5 Y147.457 E.0983
G1 X179.326 Y150 E.0983
G1 X178.5 Y152.543 E.0983
G1 X176.337 Y154.114 E.0983
G1 X173.663 Y154.114 E.0983
G1 X171.549 Y152.578 E.0961
G1 X171.102 Y152.585 F9000
G1 E-4.2 F3600
;WIPE_START
G1 F7200
G1 X170.674 Y150 E-1.29312
G1 X170.945 Y149.165 E-.41688
;WIPE_END
G1 E-.09 F3600
G1 X130.007 Y151.483 F9000
G1 E6 F2400
;TYPE:Perimeter
G1 F1800
G1 X129.44 Y153.226 E.06739
G1 X126.696 Y155.22 E.12472
G1 X123.304 Y155.22 E.12472
G1 X120.56 Y153.226 E.12472
G1 X119.512 Y150 E.12472
G1 X120.56 Y146.774 E.12472
G1 X123.304 Y144.78 E.12472
G1 X126.696 Y144.78 E.12472
G1 X129.44 Y146.774 E.12472
G1 X130.488 Y150 E.12472
G1 X130.025 Y151.426 E.05512
G1 X129.78 Y150.989 F9000
G1 F1800
G1 X129.127 Y152.998 E.07769
G1 X126.576 Y154.851 E.11591
G1 X123.424 Y154.851 E.11591
G1 X120.873 Y152.998 E.11591
G1 X119.899 Y150 E.11591
G1 X120.873 Y147.002 E.11591
G1 X123.424 Y145.149 E.11591
G1 X126.576 Y145.149 E.11591
G1 X129.127 Y147.002 E.11591
G1 X130.101 Y150 E.11591
G1 X129.798 Y150.932 E.03601
G1 X129.553 Y150.494 F9000
G1 F1800
G1 X128.813 Y152.77 E.088
G1 X126.457 Y154.483 E.10711
G1 X123.543 Y154.483 E.10711
G1 X121.187 Y152.77 E.10711
G1 X120.287 Y150 E.10711
G1 X121.187 Y147.23 E.10711
G1 X123.543 Y145.517 E.10711
G1 X126.457 Y145.517 E.10711
G1 X128.813 Y147.23 E.10711
G1 X129.713 Y150 E.10711
G1 X129.571 Y150.437 E.0169
G1 X129.326 Y150 F9000
;TYPE:External perimeter
G1 F1800
G1 X128.5 Y152.543 E.0983
G1 X126.337 Y154.114 E.0983
G1 X123.663 Y154.114 E.0983
G1 X121.5 Y152.543 E.0983
G1 X120.674 Y150 E.0983
G1 X121.5 Y147.457 E.0983
G1 X123.663 Y145.886 E.0983
G1 X126.337 Y145.886 E.0983
G1 X128.5 Y147.457 E.0983
G1 X129.307 Y149.943 E.0961
G1 X129.672 Y150.2 F9000
G1 E-4.2 F3600
;WIPE_START
G1 F7200
G1 X128.5 Y152.543 E-1.29312
G1 X127.79 Y153.059 E-.41688
;WIPE_END
G1 E-.09 F3600
G1 X145.459 Y142.291 F9000
G1 E6 F2400
;TYPE:Perimeter
G1 F1800
G1 X146.767 Y143.599 E.06804
G1 X150 Y144.465 E.12306
G1 X153.233 Y143.599 E.12306
G1 X155.599 Y141.233 E.12306
G1 X156.465 Y138 E.12306
G1 X155.599 Y134.767 E.12306
G1 X154.247 Y133.415 E.07029
G1 X174.899 Y133.415 E.75932
G1 X179.668 Y134.101 E.17717
G1 X183.958 Y136.06 E.17341
G1 X187.523 Y139.149 E.17341
G1 X190.073 Y143.117 E.17341
G1 X191.401 Y147.642 E.17341
G1 X191.401 Y152.358 E.17341
G1 X190.073 Y156.883 E.17341
G1 X187.523 Y160.851 E.17341
G1 X183.958 Y163.94 E.17341
G1 X179.668 Y165.899 E.17341
G1 X174.899 Y166.585 E.17717
G1 X154.247 Y166.585 E.75932
G1 X155.599 Y165.233 E.07029
G1 X156.465 Y162 E.12306
G1 X155.599 Y158.767 E.12306
G1 X153.233 Y156.401 E.12306
G1 X150 Y155.535 E.12306
G1 X146.767 Y156.401 E.12306
G1 X144.401 Y158.767 E.12306
G1 X143.535 Y162 E.12306
G1 X144.401 Y165.233 E.12306
G1 X145.753 Y166.585 E.07029
G1 X125.101 Y166.585 E.75932
G1 X120.332 Y165.899 E.17717
G1 X116.042 Y163.94 E.17341
G1 X112.477 Y160.851 E.17341
G1 X109.927 Y156.883 E.17341
G1 X108.599 Y152.358 E.17341
G1 X108.599 Y147.642 E.17341
G1 X109.927 Y143.117 E.17341
G1 X112.477 Y139.149 E.17341
G1 X116.042 Y136.06 E.17341
G1 X120.332 Y134.101 E.17341
G1 X125.101 Y133.415 E.17717
G1 X132.585 Y133.415 E.27515
G1 X132.585 Y147.14 E.50462
G1 X133.125 Y149.853 E.10173
G1 X134.76 Y152.281 E.10763
G1 X137.168 Y153.882 E.10632
G1 X139.863 Y154.415 E.101
G1 X150.186 Y154.415 E.37959
G1 X152.233 Y153.867 E.0779
G1 X153.867 Y152.233 E.08499
G1 X154.465 Y150 E.08499
G1 X153.867 Y147.767 E.08499
G1 X152.233 Y146.133 E.08499
G1 X150.186 Y145.585 E.0779
G1 X146.139 Y145.585 E.14881
G1 X144.255 Y145.21 E.07065
G1 X142.777 Y144.222 E.06537
G1 X141.789 Y142.741 E.06547
G1 X141.415 Y140.861 E.07047
G1 X141.415 Y133.415 E.27375
G1 X145.753 Y133.415 E.15947
G1 X144.401 Y134.767 E.07029
G1 X143.535 Y138 E.12306
G1 X144.401 Y141.233 E.12306
G1 X145.416 Y142.248 E.05281
G1 X145.157 Y141.468 F9000
G1 F1800
G1 X146.958 Y143.269 E.09364
G1 X150 Y144.084 E.11579
G1 X153.042 Y143.269 E.11579
G1 X155.269 Y141.042 E.11579
G1 X156.084 Y138 E.11579
G1 X155.269 Y134.958 E.11579
G1 X153.358 Y133.047 E.09937
G1 X174.925 Y133.047 E.793
G1 X179.773 Y133.744 E.18009
G1 X184.16 Y135.747 E.17731
G1 X187.804 Y138.905 E.17731
G1 X190.411 Y142.962 E.17731
G1 X191.77 Y147.589 E.17731
G1 X191.77 Y152.411 E.17731
G1 X190.411 Y157.038 E.17731
G1 X187.804 Y161.095 E.17731
G1 X184.16 Y164.253 E.17731
G1 X179.773 Y166.256 E.17731
G1 X174.925 Y166.953 E.18009
G1 X153.358 Y166.953 E.793
G1 X155.269 Y165.042 E.09937
G1 X156.084 Y162 E.11579
G1 X155.269 Y158.958 E.11579
G1 X153.042 Y156.731 E.11579
G1 X150 Y155.916 E.11579
G1 X146.958 Y156.731 E.11579
G1 X144.731 Y158.958 E.11579
G1 X143.916 Y162 E.11579
G1 X144.731 Y165.042 E.11579
G1 X146.642 Y166.953 E.09937
G1 X125.075 Y166.953 E.793
G1 X120.227 Y166.256 E.18009
G1 X115.84 Y164.253 E.17731
G1 X112.196 Y161.095 E.17731
G1 X109.589 Y157.038 E.17731
G1 X108.23 Y152.411 E.17731
G1 X108.23 Y147.589 E.17731
G1 X109.589 Y142.962 E.17731
G1 X112.196 Y138.905 E.17731
G1 X115.84 Y135.747 E.17731
G1 X120.227 Y133.744 E.17731
G1 X125.075 Y133.047 E.18009
G1 X132.953 Y133.047 E.28967
G1 X132.953 Y147.103 E.51683
G1 X133.473 Y149.709 E.0977
G1 X135.021 Y152.012 E.10205
G1 X137.311 Y153.535 E.10111
G1 X139.899 Y154.047 E.09699
G1 X150.138 Y154.047 E.37648
G1 X152.042 Y153.537 E.07248
G1 X153.537 Y152.042 E.07773
G1 X154.084 Y150 E.07773
G1 X153.537 Y147.958 E.07773
G1 X152.042 Y146.463 E.07773
G1 X150.138 Y145.953 E.07248
G1 X146.103 Y145.953 E.14836
G1 X144.111 Y145.558 E.07468
G1 X142.511 Y144.488 E.07077
G1 X141.442 Y142.884 E.07086
G1 X141.047 Y140.897 E.07449
G1 X141.047 Y133.047 E.28863
G1 X146.642 Y133.047 E.20573
G1 X144.731 Y134.958 E.09937
G1 X143.916 Y138 E.11579
G1 X144.731 Y141.042 E.11579
G1 X145.115 Y141.426 E.01995
G1 X145.275 Y141.064 F9000
G1 F1800
G1 X147.149 Y142.938 E.09746
G1 X150 Y143.702 E.10853
G1 X152.851 Y142.938 E.10853
G1 X154.938 Y140.851 E.10853
G1 X155.702 Y138 E.10853
G1 X154.938 Y135.149 E.10853
G1 X152.851 Y133.062 E.10853
G1 X151.422 Y132.678 E.05442
G1 X174.951 Y132.678 E.86516
G1 X179.878 Y133.387 E.18301
G1 X184.361 Y135.434 E.1812
G1 X188.085 Y138.661 E.1812
G1 X190.75 Y142.807 E.1812
G1 X192.138 Y147.536 E.1812
G1 X192.138 Y152.464 E.1812
G1 X190.75 Y157.193 E.1812
G1 X188.085 Y161.339 E.1812
G1 X184.361 Y164.566 E.1812
G1 X179.878 Y166.613 E.1812
G1 X174.951 Y167.322 E.18301
G1 X151.422 Y167.322 E.86516
G1 X152.851 Y166.938 E.05442
G1 X154.938 Y164.851 E.10853
G1 X155.702 Y162 E.10853
G1 X154.938 Y159.149 E.10853
G1 X152.851 Y157.062 E.10853
G1 X150 Y156.298 E.10853
G1 X147.149 Y157.062 E.10853
G1 X145.062 Y159.149 E.10853
G1 X144.298 Y162 E.10853
G1 X145.062 Y164.851 E.10853
G1 X147.149 Y166.938 E.10853
G1 X148.578 Y167.322 E.05442
G1 X125.049 Y167.322 E.86516
G1 X120.122 Y166.613 E.18301
G1 X115.639 Y164.566 E.1812
G1 X111.915 Y161.339 E.1812
G1 X109.25 Y157.193 E.1812
G1 X107.862 Y152.464 E.1812
G1 X107.862 Y147.536 E.1812
G1 X109.25 Y142.807 E.1812
G1 X111.915 Y138.661 E.1812
G1 X115.639 Y135.434 E.1812
G1 X120.122 Y133.387 E.1812
G1 X125.049 Y132.678 E.18301
G1 X133.322 Y132.678 E.30419
G1 X133.322 Y147.067 E.52904
G1 X133.82 Y149.565 E.09367
G1 X135.283 Y151.743 E.09648
G1 X137.454 Y153.188 E.0959
G1 X139.935 Y153.678 E.09297
G1 X150.089 Y153.678 E.37337
G1 X151.851 Y153.206 E.06707
G1 X153.206 Y151.851 E.07047
G1 X153.702 Y150 E.07047
G1 X153.206 Y148.149 E.07047
G1 X151.851 Y146.794 E.07047
G1 X150.089 Y146.322 E.06707
G1 X146.067 Y146.322 E.14791
G1 X143.967 Y145.905 E.07871
G1 X142.245 Y144.753 E.07617
G1 X141.094 Y143.028 E.07625
G1 X140.678 Y140.933 E.07851
G1 X140.678 Y132.678 E.30352
G1 X148.578 Y132.678 E.29047
G1 X147.149 Y133.062 E.05442
G1 X145.062 Y135.149 E.10853
G1 X144.298 Y138 E.10853
G1 X145.062 Y140.851 E.10853
G1 X145.232 Y141.022 E.00887
G1 X145.392 Y140.66 F9000
;TYPE:External perimeter
G1 F1800
G1 X144.679 Y138 E.10127
G1 X145.392 Y135.34 E.10127
G1 X147.34 Y133.392 E.10127
G1 X150 Y132.679 E.10127
G1 X152.66 Y133.392 E.10127
G1 X154.608 Y135.34 E.10127
G1 X155.321 Y138 E.10127
G1 X154.608 Y140.66 E.10127
G1 X152.66 Y142.608 E.10127
G1 X150 Y143.321 E.10127
G1 X147.34 Y142.608 E.10127
G1 X145.434 Y140.703 E.09907
G1 X144.992 Y140.66 F9000
G1 E-4.2 F3600
;WIPE_START
G1 F7200
G1 X144.679 Y138 E-1.33306
G1 X144.884 Y137.233 E-.37694
;WIPE_END
G1 E-.09 F3600
G1 X140.31 Y132.31 F9000
G1 E6 F2400
G1 F1800
G1 X174.978 Y132.31 E1.27469
G1 X179.983 Y133.03 E.18592
G1 X184.562 Y135.121 E.1851
G1 X188.367 Y138.418 E.1851
G1 X191.088 Y142.653 E.1851
G1 X192.507 Y147.483 E.1851
G1 X192.507 Y152.517 E.1851
G1 X191.088 Y157.347 E.1851
G1 X188.367 Y161.582 E.1851
G1 X184.562 Y164.879 E.1851
G1 X179.983 Y166.97 E.1851
G1 X174.978 Y167.69 E.18592
G1 X125.022 Y167.69 E1.8368
G1 X120.017 Y166.97 E.18592
G1 X115.438 Y164.879 E.1851
G1 X111.633 Y161.582 E.1851
G1 X108.912 Y157.347 E.1851
G1 X107.493 Y152.517 E.1851
G1 X107.493 Y147.483 E.1851
G1 X108.912 Y142.653 E.1851
G1 X111.633 Y138.418 E.1851
G1 X115.438 Y135.121 E.1851
G1 X120.017 Y133.03 E.1851
G1 X125.022 Y132.31 E.18592
G1 X133.69 Y132.31 E.3187
G1 X133.69 Y147.031 E.54126
G1 X134.167 Y149.421 E.08964
G1 X135.452 Y151.344 E.08504
G1 X135.544 Y151.475 E.00587
G1 X137.597 Y152.84 E.09069
G1 X139.971 Y153.31 E.08896
G1 X150.041 Y153.31 E.37026
G1 X151.66 Y152.876 E.06165
G1 X152.876 Y151.66 E.06321
G1 X153.321 Y150 E.06321
G1 X152.876 Y148.34 E.06321
G1 X151.66 Y147.124 E.06321
G1 X150.041 Y146.69 E.06165
G1 X146.03 Y146.69 E.14745
G1 X143.823 Y146.252 E.08274
G1 X141.979 Y145.019 E.08157
G1 X140.747 Y143.171 E.08164
G1 X140.31 Y140.969 E.08254
G1 X140.31 Y132.37 E.31619
G1 X140.659 Y132.505 F9000
G1 E-4.2 F3600
;WIPE_START
G1 F7200
G1 X143.91 Y132.364 E-1.71
;WIPE_END
G1 E-.09 F3600
G1 X148.761 Y132.654 F9000
G1 E6 F2400
;TYPE:Gap fill
;WIDTH:0.334908
G1 F1800
G1 X148.986 Y132.625 E.00643
;WIDTH:0.287913
G1 X149.212 Y132.595 E.00536
;WIDTH:0.240918
G1 X149.437 Y132.565 E.0043
;WIDTH:0.193922
G1 X149.624 Y132.541 E.00268
;WIDTH:0.147913
G1 X149.811 Y132.516 E.00182
G1 X150.189 Y132.516 F9000
;WIDTH:0.148505
G1 F1800
G1 X150.399 Y132.544 E.00205
;WIDTH:0.195106
G1 X150.609 Y132.571 E.00304
;WIDTH:0.241706
G1 X150.819 Y132.599 E.00402
;WIDTH:0.288307
G1 X151.029 Y132.627 E.00501
;WIDTH:0.334908
G1 X151.239 Y132.654 E.00599
G1 E-4.2 F3600
;WIPE_START
G1 F7200
G1 X151.029 Y132.627 E-.10065
;WIPE_END
G1 E-1.69935 F3600
G1 X151.239 Y167.346 F9000
G1 E6 F2400
;WIDTH:0.334908
G1 F1800
G1 X151.029 Y167.373 E.00599
;WIDTH:0.288307
G1 X150.819 Y167.401 E.00501
;WIDTH:0.241706
G1 X150.609 Y167.429 E.00402
;WIDTH:0.195105
G1 X150.399 Y167.456 E.00304
;WIDTH:0.148504
G1 X150.189 Y167.484 E.00205
G1 X149.811 Y167.484 F9000
;WIDTH:0.148505
G1 F1800
G1 X149.601 Y167.456 E.00205
;WIDTH:0.195106
G1 X149.391 Y167.429 E.00304
;WIDTH:0.241706
G1 X149.181 Y167.401 E.00402
;WIDTH:0.288307
G1 X148.971 Y167.373 E.00501
;WIDTH:0.334907
G1 X148.761 Y167.346 E.00599
G1 E-4.2 F3600
;WIPE_START
G1 F7200
G1 X148.971 Y167.373 E-.10065
;WIPE_END
G1 E-1.69935 F3600
G1 X188.798 Y141.338 F9000
G1 E6 F2400
;TYPE:Solid infill
;WIDTH:0.420288
G1 F1800
G1 X183.712 Y136.252 E.2647
G1 X182.752 Y135.813 E.03883
G1 X189.185 Y142.246 E.33476
G1 X189.819 Y143.233 E.04315
G1 X189.889 Y143.472 E.00918
G1 X181.792 Y135.375 E.42136
G1 X180.832 Y134.936 E.03883
G1 X190.106 Y144.21 E.4826
G1 X190.322 Y144.948 E.02832
G1 X179.872 Y134.498 E.54383
G1 X179.59 Y134.369 E.01142
G1 X179.16 Y134.307 E.01598
G1 X190.539 Y145.687 E.59218
G1 X190.756 Y146.425 E.02832
